X:5673
T:Gan ainm
S:
H:
N:Some type of march/planxty? Slowish rhythm. Only 4 bars in 2nd part.
D:All-Ireland Fleadh 19??
Z:Adrian Scahill
M:4/4
L:1/8
K:G
%R:Reel
g2bg agfd|e2ge dBB2|g2bg agfd|(3efg fa gbg2|\
g2bg agfd|e2ge dBcA|GFGA Bddg|(3efg fa gbg2:||
G3A BddB|cABG AGEF|G3A Bddg|(3efg fa gbg2:||


